icons/op-align-justify-24.svg

<svg width="24" height="24" viewBox="0 0 24 24" fill="none" xmlns="http://www.w3.org/2000/svg">
<path d="M4 7.09091H20V6H4V7.09091ZM4 9.27273H20V8.18182H4V9.27273ZM4 11.4545H20V10.3636H4V11.4545ZM4 13.6364H20V12.5455H4V13.6364ZM4 15.8182H20V14.7273H4V15.8182ZM4 18H20V16.9091H4V18Z" fill="black"/>
</svg>

<svg xmlns="http://www.w3.org/2000/svg" width="24" height="24" viewBox="0 0 24 24"><path d="M4 7.091h16V6H4v1.091Zm0 2.182h16V8.182H4v1.091Zm0 2.181h16v-1.09H4v1.09Zm0 2.182h16v-1.09H4v1.09Zm0 2.182h16v-1.091H4v1.091ZM4 18h16v-1.091H4V18Z"/></svg>
